X:502
T:B502-  What Shall I Do to Show How Much I Love Her
Q:1/4=120
L:1/4
M:3/4
K:Dm
fde|^c3/2e/d|(e/4f/4g/) (f/e/) (f/d/)|e2A|\
ade|fA^c|(d3/4e/4)e3/2d/|d3|\
f(e/d/) (f/e/)|^c3/2e/d|(e/4f/4g/) (f/e/) (f/d/)|e2A|\
ade|fA^c|(d3/4e/4)c3/2d/|d3|\
":s:"cAc|fcd|A3/4B/4(cB3/4)A/4|G2F|\
Ad=B|c/d/e(A/^G/)|(A/=B/)B3/2A/|A3|\
d=Be|^cAf|d(g/f/) (f/d/)|e2A|\
(e/f/) (gf3/4)e/4|(f/g/)a(d/^c/)|(d/e/)e3/2d/|d3|]
